/* XPM */
static char *tm_cloud_admin_silent[] = {
/* columns rows colors chars-per-pixel */
"24 24 132 2 ",
"   c None",
".  c #3C3C3C",
"X  c gray24",
"o  c #434343",
"O  c gray28",
"+  c #494949",
"@  c gray29",
"#  c #4B4B4B",
"$  c #4C4C4C",
"%  c gray30",
"&  c #4E4E4E",
"*  c #505050",
"=  c gray35",
"-  c #5D5D5D",
";  c #626262",
":  c #656565",
">  c #686868",
",  c #73706D",
"<  c gray46",
"1  c #767676",
"2  c #777777",
"3  c #797776",
"4  c #787777",
"5  c #7A7777",
"6  c #7C7774",
"7  c #7F7973",
"8  c #7D7975",
"9  c #7E7A77",
"0  c #7A7978",
"q  c #7B7B7B",
"w  c #7C7C7C",
"e  c #7F7E7E",
"r  c #8A7A6E",
"t  c #9A7D67",
"y  c #907C6C",
"u  c #E08A00",
"i  c #E39518",
"p  c #E39519",
"a  c #E3961A",
"s  c #E3961B",
"d  c #BD8357",
"f  c #B6825A",
"g  c #B6825B",
"h  c #B2815C",
"j  c #BC8358",
"k  c #9C826D",
"l  c #9E826C",
"z  c #8F8176",
"x  c #85817E",
"c  c #8C8178",
"v  c #978170",
"b  c #988270",
"n  c #9B8370",
"m  c #A88062",
"M  c #CC854F",
"N  c #CD864F",
"B  c #CE864F",
"V  c #C18455",
"C  c #C38454",
"Z  c #CB8550",
"A  c #CB8651",
"S  c #C88552",
"D  c #CF8852",
"F  c #C89E7D",
"G  c #D9A277",
"H  c #878583",
"J  c gray52",
"K  c #8E8E8E",
"L  c #928E8A",
"P  c #938E8B",
"I  c #979390",
"U  c #969391",
"Y  c #989898",
"T  c #A09D99",
"R  c #A5A19E",
"E  c #A4A4A4",
"W  c #A5A5A5",
"Q  c gray68",
"!  c gray69",
"~  c #B7B6B5",
"^  c #B7B7B7",
"/  c #B8B7B6",
"(  c #BBBBBB",
")  c #BEBDBC",
"_  c #C9A68B",
"`  c #DCAA83",
"'  c #DEAD88",
"]  c #F2CD92",
"[  c #F2CD93",
"{  c #F2CE95",
"}  c #F2CF97",
"|  c #F2D098",
" . c gray76",
".. c #C5C5C5",
"X. c #C6C6C6",
"o. c #C8C8C8",
"O. c gray79",
"+. c #CECECE",
"@. c gray81",
"#. c #D0D0D0",
"$. c #D7D7D7",
"%. c #D8D8D8",
"&. c gray85",
"*. c #DADADA",
"=. c gainsboro",
"-. c #E4E4E4",
";. c gray90",
":. c #E6E6E6",
">. c #E7E7E7",
",. c #EAEAEA",
"<. c gray92",
"1. c #EFEFEF",
"2. c #F2F0EF",
"3. c #F4F0ED",
"4. c #F9F1EB",
"5. c #F1F1F1",
"6. c #F3F3F3",
"7. c #F4F4F4",
"8. c gray96",
"9. c #F6F6F6",
"0. c gray97",
"q. c #FDF9F2",
"w. c #FEF9F3",
"e. c gray98",
"r. c gray99",
"t. c #FDFDFC",
"y. c #FDFDFD",
"u. c #FEFEFD",
"i. c #FFFEFD",
"p. c #FEFEFE",
"a. c #FFFFFE",
"s. c white",
/* pixels */
"                                                ",
"                                                ",
"                                                ",
"                                                ",
"                                                ",
"                                                ",
"                  * Y E 1 X                     ",
"                1 :.s.&.,.@.= o ; +             ",
"        + +   > ,.s.:.0 J s.$.$.s.:.;           ",
"      K :.:.X.&.s.s.6.0 J s.s.s.s.s.Q = ; X     ",
"    0 s.s.s.s.s.s.s.) l c &.s.s.s.s.6.s.s.~     ",
"    @.s.s.s.s.s.s.s.x C g L s.s.s.s.s.s.s.6.+   ",
"    &.s.6.Q @.@.~ I b B B z L R / ~ ~ 6.s.s.+   ",
"    X.s.@.0 4 b m g Z B B Z d _ 2.s.q.s.s.,.o   ",
"    0 s.6.) I l B B B B B B ` s.] p u p ] s.    ",
"      E 6.s.s.T v B B B B D 4.] u u u u u ] s.  ",
"        + + + + , g B B B G s.p u u u u u p s.  ",
"                8 j B B B ' q.u u u u u u u q.  ",
"                4 Z C y r F s.p u u u u u p s.  ",
"                4 t 8     8 2.] u u u u u | s.  ",
"              1 1 4         X.s.] p u p ] s.    ",
"                1             ~ 6.s.q.s.s.      ",
"                                                ",
"                                                "
};
