/* XPM */
static char *tm_cloud_silent[] = {
/* columns rows colors chars-per-pixel */
"24 24 61 1 ",
"  c None",
". c #3C3C3C",
"X c gray24",
"o c #434343",
"O c gray28",
"+ c gray29",
"@ c #4B4B4B",
"# c #4C4C4C",
"$ c gray30",
"% c #4E4E4E",
"& c #505050",
"* c gray35",
"= c #5D5D5D",
"- c #626262",
"; c #656565",
": c #686868",
"> c gray46",
", c #767676",
"< c #7B7B7B",
"1 c #7C7C7C",
"2 c #E08A00",
"3 c #E39518",
"4 c #E39519",
"5 c #E3961A",
"6 c #E3961B",
"7 c #838383",
"8 c #8E8E8E",
"9 c #989898",
"0 c #A4A4A4",
"q c #A5A5A5",
"w c gray68",
"e c #B7B7B7",
"r c #F2CD92",
"t c #F2CD93",
"y c #F2CE95",
"u c #F2CF97",
"i c #F2D098",
"p c gray76",
"a c #C6C6C6",
"s c #CECECE",
"d c gray81",
"f c #D0D0D0",
"g c #D7D7D7",
"h c #D8D8D8",
"j c gainsboro",
"k c #E4E4E4",
"l c #E6E6E6",
"z c #E7E7E7",
"x c gray92",
"c c #EFEFEF",
"v c #F1F1F1",
"b c gray96",
"n c #F6F6F6",
"m c #FDF9F2",
"M c #FEF9F3",
"N c gray98",
"B c #FDFDFD",
"V c #FEFEFD",
"C c #FEFEFE",
"Z c #FFFFFE",
"A c white",
/* pixels */
"                        ",
"                        ",
"                        ",
"                        ",
"                        ",
"                        ",
"         &90,X          ",
"        ,lAAAd*o-+      ",
"    ++ :cAAAAAggAl-     ",
"   8llajAAAAAAAAAAw*-X  ",
"  <AAAAAAAAAAAAAAAvAAe  ",
"  dAAAAAAAAAAAAAAAAAAv+ ",
"  jAAAAAAAAAAAAAAAAAAA+ ",
"  aAAAAAAAAAAAAAAAmAAco ",
"  <AAAAAAAAAAAAAr424rA  ",
"   0vAAAAAAAAAAr22222rA ",
"    ++++++++&7A4222224A ",
"              m2222222m ",
"              A4222224A ",
"              Ar22222iA ",
"               Ar424rA  ",
"                AAmAA   ",
"                        ",
"                        "
};
