/* XPM */
static char *tm_cloud_active[] = {
/* columns rows colors chars-per-pixel */
"24 24 61 1 ",
"  c None",
". c #3C3C3C",
"X c gray24",
"o c #434343",
"O c gray28",
"+ c gray29",
"@ c #4B4B4B",
"# c #4C4C4C",
"$ c gray30",
"% c #4E4E4E",
"& c #505050",
"* c gray35",
"= c #5D5D5D",
"- c #626262",
"; c #656565",
": c #686868",
"> c gray46",
", c #767676",
"< c #7B7B7B",
"1 c #7C7C7C",
"2 c #2E9E3E",
"3 c #42A750",
"4 c #42A851",
"5 c #43A852",
"6 c #44A852",
"7 c #838383",
"8 c #8E8E8E",
"9 c #989898",
"0 c #A4A4A4",
"q c #A5A5A5",
"w c gray68",
"e c #B7B7B7",
"r c #A6D6AC",
"t c #A6D6AD",
"y c #A8D7AF",
"u c #AAD7B0",
"i c #ABD8B1",
"p c gray76",
"a c #C6C6C6",
"s c #CECECE",
"d c gray81",
"f c #D0D0D0",
"g c #D7D7D7",
"h c #D8D8D8",
"j c gainsboro",
"k c #E4E4E4",
"l c #E6E6E6",
"z c #E7E7E7",
"x c gray92",
"c c #EFEFEF",
"v c #F1F1F1",
"b c gray96",
"n c #F6F6F6",
"m c #F4FAF5",
"M c #F5FAF6",
"N c gray98",
"B c #FDFDFD",
"V c #FDFEFD",
"C c #FEFEFE",
"Z c #FEFFFE",
"A c white",
/* pixels */
"                        ",
"                        ",
"                        ",
"                        ",
"                        ",
"                        ",
"         &90,X          ",
"        ,lAAAd*o-+      ",
"    ++ :cAAAAAggAl-     ",
"   8llajAAAAAAAAAAw*-X  ",
"  <AAAAAAAAAAAAAAAvAAe  ",
"  dAAAAAAAAAAAAAAAAAAv+ ",
"  jAAAAAAAAAAAAAAAAAAA+ ",
"  aAAAAAAAAAAAAAAAmAAco ",
"  <AAAAAAAAAAAAAr324yA  ",
"   0vAAAAAAAAAAr22222yA ",
"    ++++++++&7A4222224A ",
"              m2222222m ",
"              A4222224A ",
"              Ay22222iA ",
"               Ay424uA  ",
"                AAmAA   ",
"                        ",
"                        "
};
