/* XPM */
static char *tm_cloud_lost[] = {
/* columns rows colors chars-per-pixel */
"24 24 91 1 ",
"  c None",
". c #3C3C3C",
"X c gray24",
"o c #434343",
"O c gray28",
"+ c gray29",
"@ c #4B4B4B",
"# c #4C4C4C",
"$ c gray30",
"% c #4E4E4E",
"& c #505050",
"* c gray35",
"= c #5D5D5D",
"- c #626262",
"; c #656565",
": c #767676",
"> c gray47",
", c #7B7B7B",
"< c #7C7C7C",
"1 c #C00040",
"2 c #C00141",
"3 c #C10544",
"4 c #C20745",
"5 c #C30E4A",
"6 c #C40F4B",
"7 c #C4104C",
"8 c #C61A53",
"9 c #C71D56",
"0 c #C71E56",
"q c #CB2C61",
"w c #CC2F63",
"e c #CC3064",
"r c #D04171",
"t c #D24775",
"y c #D5537E",
"u c #D86289",
"i c #DA688E",
"p c #DF7D9E",
"a c #8E8E8E",
"s c #989898",
"d c gray60",
"f c #A0A0A0",
"g c #A4A4A4",
"h c #A5A5A5",
"j c gray65",
"k c gray67",
"l c gray68",
"z c #AEAEAE",
"x c #B7B7B7",
"c c #E080A0",
"v c #E081A1",
"b c #E299B1",
"n c #E79FB7",
"m c #E8A2B9",
"M c #E9A6BC",
"N c #EDB4C7",
"B c #EDB9CA",
"V c #EEB9CB",
"C c #EFBECE",
"Z c gray76",
"A c #C6C6C6",
"S c #CECECE",
"D c gray81",
"F c #D0D0D0",
"G c #D7D7D7",
"H c #D8D8D8",
"J c gainsboro",
"K c #F2C9D6",
"L c #F3CFDB",
"P c #F4D3DE",
"I c #F6DBE4",
"U c #E2E2E2",
"Y c #E4E4E4",
"T c #E6E6E6",
"R c #E7E7E7",
"E c gray91",
"W c #F8E0E7",
"Q c #F8E1E8",
"! c #F9E4EB",
"~ c #FAE9EF",
"^ c #FBEEF2",
"/ c #F1F1F1",
"( c gray96",
") c #F6F6F6",
"_ c #FCF1F5",
"` c gray98",
"' c #FEF9FB",
"] c #FEFAFB",
"[ c #FDFDFD",
"{ c #FEFEFE",
"} c white",
/* pixels */
"                        ",
"                        ",
"    WW                  ",
"    y9I                 ",
"    K6w~                ",
"     B2r                ",
"      m2ugsg:X          ",
"       p2v}}}D*o-+      ",
"    ++ gi2n}}}GG}T-     ",
"   aTTAJ}r2B}}}}}}k*-X  ",
"  ,}}}}}}_e6L}}}}}/}}x  ",
"  D}}}}}}}!99!}}}}}}}/+ ",
"  J}}}}}}}}P7w^}}}}}}}+ ",
"  A}}}}}}}}}B2r}}}}}}To ",
"  ,}}}}}}}}}}m2u}}}}}k  ",
"   g/}}}}}}}}}v2v}}Eko  ",
"    ++++++++&&si2n,+    ",
"                r2N     ",
"                ~w6K    ",
"                 I9y    ",
"                  WW    ",
"                        ",
"                        ",
"                        "
};
